iconos/candado-abierto.svg

<?xml version="1.0" encoding="UTF-8" standalone="no"?>
<svg
   version="1.1"
   width="28"
   height="28"
   color-interpolation="linearRGB"
   id="svg56"
   sodipodi:docname="candado-abierto.svg"
   inkscape:version="1.2.2 (b0a8486541, 2022-12-01)"
   xmlns:inkscape="http://www.inkscape.org/namespaces/inkscape"
   xmlns:sodipodi="http://sodipodi.sourceforge.net/DTD/sodipodi-0.dtd"
   xmlns="http://www.w3.org/2000/svg"
   xmlns:svg="http://www.w3.org/2000/svg">
  <defs
     id="defs60" />
  <sodipodi:namedview
     id="namedview58"
     pagecolor="#ffffff"
     bordercolor="#000000"
     borderopacity="0.25"
     inkscape:showpageshadow="2"
     inkscape:pageopacity="0.0"
     inkscape:pagecheckerboard="0"
     inkscape:deskcolor="#d1d1d1"
     showgrid="false"
     inkscape:zoom="13.5625"
     inkscape:cx="26.986175"
     inkscape:cy="26.101382"
     inkscape:window-width="1920"
     inkscape:window-height="1052"
     inkscape:window-x="0"
     inkscape:window-y="0"
     inkscape:window-maximized="1"
     inkscape:current-layer="svg56" />
  <g
     id="g54"
     transform="matrix(0.42994029,0,0,0.42994029,-1.1450753,0.23948263)">
    <path
       style="fill:#010101;fill-opacity:0.4235"
       d="m 28,64 c 0,0 5,0 10,0 5,0 10.2,-3.04 14.75,-2.88 10.37,0.38 14.5,-4.75 8.12,-6.75 C 57.04,53.17 52,53.25 49.12,51.25 45.45,48.69 38,48 38,48 v 7 z"
       id="path2" />
    <path
       style="fill:none;stroke:#000000;stroke-width:4"
       d="m 12,18 v 17 l 4,4 v 17 l 4,2 h 2 l 1,1.5 5,2.5 8,-8 V 43 l 4,-4 V 21 L 21,12 Z"
       id="path4" />
    <linearGradient
       id="gradient0"
       gradientUnits="userSpaceOnUse"
       x1="73.739998"
       y1="-57.07"
       x2="116.61"
       y2="-8.0500002">
      <stop
         offset="0"
         stop-color="#ffdb97"
         id="stop6" />
      <stop
         offset="1"
         stop-color="#fcaf29"
         id="stop8" />
    </linearGradient>
    <path
       style="fill:url(#gradient0)"
       d="m 12,18 v 17 l 4,4 v 17 l 4,2 h 2 l 1,1.5 5,2.5 V 45 h 4 V 27 Z"
       id="path11" />
    <linearGradient
       id="gradient1"
       gradientUnits="userSpaceOnUse"
       x1="-43.970001"
       y1="-33.98"
       x2="-24.83"
       y2="-51.950001">
      <stop
         offset="0"
         stop-color="#fff7ea"
         id="stop13" />
      <stop
         offset="0.9962"
         stop-color="#fdd17b"
         id="stop15" />
    </linearGradient>
    <path
       style="fill:url(#gradient1)"
       d="M 12,18 32,27 40,21 26,20 31.99,16.99 21,12 Z"
       id="path18" />
    <linearGradient
       id="gradient2"
       gradientUnits="userSpaceOnUse"
       x1="54.23"
       y1="-52.610001"
       x2="75.839996"
       y2="-45.970001">
      <stop
         offset="0"
         stop-color="#c85805"
         id="stop20" />
      <stop
         offset="1"
         stop-color="#f06306"
         id="stop22" />
    </linearGradient>
    <path
       style="fill:url(#gradient2)"
       d="m 32,45 h -4 v 17 l 8,-8 V 43 l 4,-4 V 21 l -8,6 z"
       id="path25" />
    <path
       style="fill:#a32904"
       d="m 28,45 v 6 l 8,-8 -4,2 z"
       id="path27" />
    <linearGradient
       id="gradient3"
       gradientUnits="userSpaceOnUse"
       x1="28.92"
       y1="-64"
       x2="39.07"
       y2="-64">
      <stop
         offset="0"
         stop-color="#c85804"
         id="stop29" />
      <stop
         offset="1"
         stop-color="#dc952f"
         id="stop31" />
    </linearGradient>
    <path
       style="fill:url(#gradient3)"
       d="m 26,20 14,1 -8,-4 z"
       id="path34" />
    <path
       style="fill:none;stroke:#000000;stroke-width:4"
       d="m 26,2 c -4,0 -8,4 -8,8 0,4 4,8 8,8 4,0 8,-4 8,-8 0,-4 -4,-8 -8,-8 z"
       id="path36" />
    <radialGradient
       id="gradient4"
       gradientUnits="userSpaceOnUse"
       cx="0"
       cy="0"
       r="64"
       gradientTransform="matrix(0.2361,0,0,0.2321,22.625,6.375)">
      <stop
         offset="0"
         stop-color="#f2f2f2"
         id="stop38" />
      <stop
         offset="1"
         stop-color="#bca184"
         id="stop40" />
      <stop
         offset="0.6742"
         stop-color="#7d7a7a"
         id="stop42" />
    </radialGradient>
    <path
       style="fill:url(#gradient4)"
       d="m 26,2 c -4,0 -8,4 -8,8 0,4 4,8 8,8 4,0 8,-4 8,-8 0,-4 -4,-8 -8,-8 z"
       id="path45" />
    <linearGradient
       id="gradient5"
       gradientUnits="userSpaceOnUse"
       x1="54.23"
       y1="-52.610001"
       x2="75.839996"
       y2="-45.970001">
      <stop
         offset="0"
         stop-color="#c85805"
         id="stop47" />
      <stop
         offset="1"
         stop-color="#f06306"
         id="stop49" />
    </linearGradient>
    <path
       style="fill:url(#gradient5)"
       d="m 20,58 h 2 V 44 l -2,-1 z"
       id="path52" />
  </g>
</svg>

<?xml version="1.0" encoding="UTF-8" standalone="yes"?>
<svg version="1.1" width="64" height="64" color-interpolation="linearRGB"
     xmlns:svg="http://www.w3.org/2000/svg" xmlns="http://www.w3.org/2000/svg">
 <g>
  <path style="fill:#010101; fill-opacity:0.4235"
        d="M28 64C28 64 33 64 38 64C43 64 48.2 60.96 52.75 61.12C63.12 61.5 67.25 56.37 60.87 54.37C57.04 53.17 52 53.25 49.12 51.25C45.45 48.69 38 48 38 48V55L28 64z"
  />
  <path style="fill:none; stroke:#000000; stroke-width:4"
        d="M12 18V35L16 39V56L20 58L22 58L23 59.5L28 62L36 54V43L40 39V21L21 12L12 18z"
  />
  <linearGradient id="gradient0" gradientUnits="userSpaceOnUse" x1="73.74" y1="-57.07" x2="116.61" y2="-8.05">
   <stop offset="0" stop-color="#ffdb97"/>
   <stop offset="1" stop-color="#fcaf29"/>
  </linearGradient>
  <path style="fill:url(#gradient0)"
        d="M12 18V35L16 39V56L20 58L22 58L23 59.5L28 62V45H32V27L12 18z"
  />
  <linearGradient id="gradient1" gradientUnits="userSpaceOnUse" x1="-43.97" y1="-33.98" x2="-24.83" y2="-51.95">
   <stop offset="0" stop-color="#fff7ea"/>
   <stop offset="0.9962" stop-color="#fdd17b"/>
  </linearGradient>
  <path style="fill:url(#gradient1)"
        d="M12 18L32 27L40 21L26 20L31.99 16.99L21 12L12 18z"
  />
  <linearGradient id="gradient2" gradientUnits="userSpaceOnUse" x1="54.23" y1="-52.61" x2="75.84" y2="-45.97">
   <stop offset="0" stop-color="#c85805"/>
   <stop offset="1" stop-color="#f06306"/>
  </linearGradient>
  <path style="fill:url(#gradient2)"
        d="M32 45H28V62L36 54V43L40 39V21L32 27V45z"
  />
  <path style="fill:#a32904"
        d="M28 45V51L36 43L32 45H28z"
  />
  <linearGradient id="gradient3" gradientUnits="userSpaceOnUse" x1="28.92" y1="-64" x2="39.07" y2="-64">
   <stop offset="0" stop-color="#c85804"/>
   <stop offset="1" stop-color="#dc952f"/>
  </linearGradient>
  <path style="fill:url(#gradient3)"
        d="M26 20L40 21L32 17L26 20z"
  />
  <path style="fill:none; stroke:#000000; stroke-width:4"
        d="M26 2C22 2 18 6 18 10C18 14 22 18 26 18C30 18 34 14 34 10C34 6 30 2 26 2z"
  />
  <radialGradient id="gradient4" gradientUnits="userSpaceOnUse" cx="0" cy="0" r="64" gradientTransform="matrix(0.2361,0,0,0.2321,22.625,6.375)">
   <stop offset="0" stop-color="#f2f2f2"/>
   <stop offset="1" stop-color="#bca184"/>
   <stop offset="0.6742" stop-color="#7d7a7a"/>
  </radialGradient>
  <path style="fill:url(#gradient4)"
        d="M26 2C22 2 18 6 18 10C18 14 22 18 26 18C30 18 34 14 34 10C34 6 30 2 26 2z"
  />
  <linearGradient id="gradient5" gradientUnits="userSpaceOnUse" x1="54.23" y1="-52.61" x2="75.84" y2="-45.97">
   <stop offset="0" stop-color="#c85805"/>
   <stop offset="1" stop-color="#f06306"/>
  </linearGradient>
  <path style="fill:url(#gradient5)"
        d="M20 58H22V44L20 43V58z"
  />
 </g>
</svg>
